Pictures/mastercraft-logo.svg

<svg width="50" height="50" viewBox="0 0 50 50" fill="none" xmlns="http://www.w3.org/2000/svg">
<g id="Group 3">
<rect id="Rectangle" width="50" height="50" rx="15" fill="#1F1F1F"/>
<g id="Group 16">
<path id="Path 5" d="M14.5577 24.1019C15.2715 23.3882 16.4054 23.3506 17.1634 23.9892L17.2861 24.1019L27.4276 34.2434C28.181 34.9968 28.181 36.2184 27.4276 36.9718C26.7138 37.6856 25.5799 37.7231 24.8219 37.0845L24.6992 36.9718L14.5577 26.8304C13.8043 26.0769 13.8043 24.8554 14.5577 24.1019Z" fill="#444444"/>
<g id="Path 4">
<path id="Path 3" d="M35.1821 13.0171C36.1888 12.0213 37.889 12.6765 37.9881 14.0426L37.9926 14.1687V24.905C37.9926 25.8044 37.2555 26.5336 36.3463 26.5336C35.4784 26.5336 34.7673 25.8692 34.7044 25.0265L34.6999 24.905L34.6996 18.0999L26.6568 26.0566C25.6502 27.0523 23.95 26.3971 23.8508 25.0311L23.8463 24.905L23.846 18.0999L15.8032 26.0566C15.1941 26.6591 14.2264 26.6908 13.5796 26.1517L13.4749 26.0566C12.8657 25.4541 12.8337 24.4969 13.3787 23.857L13.4749 23.7534L24.3285 13.0171C25.3351 12.0213 27.0353 12.6765 27.1345 14.0426L27.139 14.1687L27.1387 20.9727L35.1821 13.0171Z" fill="white"/>
</g>
</g>
</g>
</svg>

<svg xmlns="http://www.w3.org/2000/svg" width="50" height="50" fill="none"><rect width="50" height="50" fill="#1F1F1F" rx="15"/><path fill="#444" d="M14.558 24.102a1.93 1.93 0 0 1 2.605-.113l.123.113 10.142 10.141a1.93 1.93 0 0 1-2.606 2.841l-.123-.112L14.558 26.83a1.93 1.93 0 0 1 0-2.728Z"/><path fill="#fff" d="M35.182 13.017c1.007-.996 2.707-.34 2.806 1.026l.005.126v10.736c0 .9-.738 1.629-1.647 1.629a1.64 1.64 0 0 1-1.642-1.508l-.004-.121V18.1l-8.043 7.957c-1.007.995-2.707.34-2.806-1.026l-.005-.126V18.1l-8.043 7.957a1.66 1.66 0 0 1-2.223.095l-.105-.095a1.616 1.616 0 0 1-.096-2.2l.096-.104 10.853-10.736c1.007-.996 2.707-.34 2.806 1.026l.005.126v6.804l8.043-7.956Z"/></svg>
